fs/checkmark_lock_16_filled.svg

<svg viewBox="0 0 16 16" fill="none" xmlns="http://www.w3.org/2000/svg" height="1em" width="1em">
  <path d="M7 1C10.3137 1 13 3.68629 13 7C13 7.06911 12.9988 7.13795 12.9965 7.2065C12.6912 7.07366 12.3542 7 12 7C10.7718 7 9.75045 7.88568 9.53981 9.0532C8.65707 9.26107 8 10.0538 8 11V12.917C7.67479 12.9716 7.34071 13 7 13C3.68629 13 1 10.3137 1 7C1 3.68629 3.68629 1 7 1ZM9.12028 5.16398L6.24953 8.04242L4.85355 6.64645C4.65829 6.45118 4.34171 6.45118 4.14645 6.64645C3.95118 6.84171 3.95118 7.15829 4.14645 7.35355L5.89645 9.10355C6.09189 9.299 6.40884 9.29879 6.60403 9.10308L9.82833 5.87014C10.0233 5.67462 10.0229 5.35804 9.82738 5.16304C9.63186 4.96803 9.31528 4.96846 9.12028 5.16398ZM10.4291 10C10.4529 9.99883 10.4769 9.99822 10.501 9.99817V9.50391C10.501 8.67548 11.1725 8.00391 12.001 8.00391C12.8294 8.00391 13.501 8.67548 13.501 9.50391V9.99817H13.5039C13.529 9.99817 13.5539 9.99878 13.5787 10H14C14.5523 10 15 10.4477 15 11V11.3891C15.0026 11.4251 15.0039 11.4615 15.0039 11.4982V13.4999C15.0039 13.5366 15.0026 13.5729 15 13.609V14C15 14.5523 14.5523 15 14 15H10C9.44772 15 9 14.5523 9 14V11C9 10.4477 9.44772 10 10 10H10.4291ZM12.001 9.00391C11.7248 9.00391 11.501 9.22776 11.501 9.50391V9.99817H12.501V9.50391C12.501 9.22776 12.2771 9.00391 12.001 9.00391ZM12.5 12.5C12.5 12.2239 12.2761 12 12 12C11.7239 12 11.5 12.2239 11.5 12.5C11.5 12.7761 11.7239 13 12 13C12.2761 13 12.5 12.7761 12.5 12.5Z" fill="#212121"/>
</svg>

<svg viewBox="0 0 16 16" fill="none" xmlns="http://www.w3.org/2000/svg" height="1em" width="1em">
  <path d="M7 1a6 6 0 0 1 5.996 6.207A2.5 2.5 0 0 0 9.54 9.053 2 2 0 0 0 8 11v1.917A6 6 0 1 1 7 1Zm2.12 4.164L6.25 8.042 4.854 6.646a.5.5 0 1 0-.708.708l1.75 1.75a.5.5 0 0 0 .708 0L9.828 5.87a.5.5 0 0 0-.708-.706ZM10.43 10a1.53 1.53 0 0 1 .071-.002v-.494a1.5 1.5 0 1 1 3 0v.494h.003c.025 0 .05 0 .075.002H14a1 1 0 0 1 1 1v.39c.003.035.004.071.004.108V13.5c0 .037-.001.073-.004.109V14a1 1 0 0 1-1 1h-4a1 1 0 0 1-1-1v-3a1 1 0 0 1 1-1h.43ZM12 9.004a.5.5 0 0 0-.5.5v.494h1v-.494a.5.5 0 0 0-.5-.5Zm.5 3.496a.5.5 0 1 0-1 0 .5.5 0 0 0 1 0Z" fill="#212121"/>
</svg>
